lib/brands/icons/adobe-fill-and-sign.svg

<svg xmlns="http://www.w3.org/2000/svg" fill="none" aria-hidden="true" viewBox="0 0 48 48"><g id="adobe-fill-and-sign-Icon"><g id="Group"><path id="bg" fill="#00005B" d="M6 19.0286C6 14.4681 6 12.1879 6.88752 10.4461C7.6682 8.9139 8.9139 7.6682 10.4461 6.88752C12.1879 6 14.4681 6 19.0286 6H28.9714C33.5319 6 35.8121 6 37.5539 6.88752C39.0861 7.6682 40.3318 8.9139 41.1125 10.4461C42 12.1879 42 14.4681 42 19.0286V28.9714C42 33.5319 42 35.8121 41.1125 37.5539C40.3318 39.0861 39.0861 40.3318 37.5539 41.1125C35.8121 42 33.5319 42 28.9714 42H19.0286C14.4681 42 12.1879 42 10.4461 41.1125C8.9139 40.3318 7.6682 39.0861 6.88752 37.5539C6 35.8121 6 33.5319 6 28.9714V19.0286Z"/><g id="Vector"><path fill="#9999FF" d="M26.6255 13.7143L15.1648 25.3488L13.7139 31.2902L19.5502 29.8007L31.0109 18.1662L26.6255 13.7143Z"/><path fill="#9999FF" d="M27.0819 34.2526C26.3004 34.1534 25.8573 33.4671 25.6799 32.7466C24.1148 33.5906 22.7617 34.1864 20.2837 34.1864H14.3659C14.1866 34.1864 14.0398 34.0375 14.0398 33.8554C14.0398 33.6734 14.1866 33.5244 14.3659 33.5244H20.2837C22.8432 33.5244 24.1148 32.8955 25.5984 32.068C25.5107 30.4663 26.4912 26.629 28.81 27.7154C31.1283 28.8186 27.1434 31.8965 26.2994 32.4156C26.371 32.9245 26.638 33.5364 27.196 33.6072C28.6469 33.7892 29.9348 32.399 30.7011 31.5881C30.9516 31.3162 31.6112 30.4949 31.9564 31.1081C32.0868 31.3564 31.9564 31.6377 31.7281 32.1342C31.5278 32.5779 30.9152 33.6237 31.7607 33.6237C32.2009 33.6237 33.5377 32.6142 33.6518 32.2666C33.7007 32.0846 33.8801 32.0018 34.0594 32.0515C34.2387 32.1011 34.3202 32.2832 34.2713 32.4652C34.0757 33.1272 32.478 34.2857 31.7607 34.2857C31.3043 34.2857 30.9782 34.1368 30.7989 33.8554C30.538 33.4251 30.7011 32.8459 30.9293 32.2997C29.9186 33.3257 28.6164 34.4473 27.0819 34.2526ZM26.2179 31.6543C26.6233 31.3893 29.8328 28.9711 28.5002 28.2947C26.8732 27.5606 26.2454 30.6321 26.2179 31.6543Z"/></g></g></g></svg>

<svg xmlns="http://www.w3.org/2000/svg" fill="none" aria-hidden="true" viewBox="0 0 48 48"><path fill="#00005B" d="M6 19.029c0-4.56 0-6.841.888-8.583a8.143 8.143 0 0 1 3.558-3.558C12.188 6 14.468 6 19.03 6h9.942c4.56 0 6.841 0 8.583.888a8.143 8.143 0 0 1 3.558 3.558C42 12.188 42 14.468 42 19.03v9.942c0 4.56 0 6.841-.888 8.583a8.143 8.143 0 0 1-3.558 3.558C35.812 42 33.532 42 28.97 42h-9.94c-4.56 0-6.841 0-8.583-.888a8.143 8.143 0 0 1-3.558-3.558C6 35.812 6 33.532 6 28.97v-9.94Z"/><path fill="#99F" d="M26.626 13.714 15.166 25.35l-1.452 5.941 5.837-1.49 11.46-11.634-4.385-4.452Zm.456 20.539c-.781-.1-1.224-.786-1.402-1.506-1.565.844-2.918 1.44-5.396 1.44h-5.918a.33.33 0 0 1-.326-.332.33.33 0 0 1 .326-.33h5.918c2.56 0 3.831-.63 5.315-1.457-.088-1.602.893-5.439 3.211-4.353 2.319 1.104-1.666 4.181-2.51 4.7.072.51.338 1.121.896 1.192 1.451.182 2.74-1.208 3.505-2.019.251-.272.91-1.093 1.256-.48.13.248 0 .53-.228 1.026-.2.444-.813 1.49.032 1.49.44 0 1.777-1.01 1.891-1.357.05-.182.228-.265.408-.216.18.05.26.232.212.414-.196.662-1.794 1.82-2.51 1.82-.457 0-.783-.148-.963-.43-.26-.43-.098-1.01.13-1.555-1.01 1.026-2.312 2.147-3.847 1.953Zm-.864-2.599c.406-.265 3.615-2.683 2.283-3.36-1.627-.733-2.255 2.338-2.283 3.36Z"/></svg>
